X: 0
T: The Joyful Morn Is Breaking
L: 1/4
M: 6/8
Q: 1/4=110
K: F
[V: P1]  F/ | A A/ (A/ G/) A/ | c3/ A F/ | G G/ (G/ F/) G/ | (A3/ A) F/ | A A/ (A/ G/) A/ | c3/ E F/ | G A/ (=B/ A/) B/ | (c3/ c) c/ | c c/ (e/ d/) c/ | c3/ A F/ | d F/ (G/ F/) G/ | (A3/ A) G/ | F F/ (F/ G/) F/ | d3/ F G/ | A A/ (G/ F/) G/ | (F3/ F)|]

